X:1
T:Title
%%score [ 1 2 3 ]
L:1/8
Q:1/4=96
M:4/4
K:C
V:1 treble nm="MusicXML Part"
V:2 treble nm="MusicXML Part"
V:3 bass nm="MusicXML Part"
V:1
 e6 e2 | e4 e2 !breath!e2 | e2 dc d4 | e4 !fermata!z4 | B6 B2 | B4 B2 !breath!B2 | (B2 AG A4) | %7
w: A- do-|ra- mus Te|Chri- * * *|ste,|a- do-|ra- mus Te|Chri- * * *|
 B4 z4 | z2 B2 e3 d | ^c2 c!breath!c (d4- | d2 c2 B4) | A4 z2 c2- | c2 !breath!c4 c2 | d2 e2 f3 f | %14
w: ste,|et be- ne-|di- ci- mus Ti-||bi, qui-|* a per|san- ctam Cru- cem|
 e4 d4 | z4 z2 f2- | f2 f2 e2 e2 | e4 !breath!d4 | z4 z2 c2- | c2 c2 B2 B2 | B4 A4 | z8 | %22
w: tu- am|re-|* de- mi- sti|mun- dum|re-|* de- mi- sti|mun- dum||
 z2 e4 B2 | c4 ^c4 | d4 !breath!e4 | f4 e4 | (d2 e4 d2- | d2) !breath!c2 B2 B2- | %28
w: re- de-|mi- sti|mun- dum|re- de-|mi- * *|* sti re- de-|
 B2 A4 !breath!^G2 | (c6 BA) | !fermata!B8 |] %31
w: * mi- sti|mun- * *|dum.|
V:2
 c6 c2 | B4 B2 !breath!c2 | A8 | ^G4 !fermata!z4 | G6 G2 | ^F4 F2 !breath!G2 | E8 | ^D4 z2 ^F2 | %8
w: A- do-|ra- mus Te|Chri-|ste,|a- do-|ra- mus Te|Chri-|ste, et|
 B3 A ^G G!breath!G x | (A8 | ^G2) A4 G2 | A4 z4 | A4 !breath!A2 A2 | B2 c2 c2 B2 | %14
w: be- ne- di- ci- mus|Ti-||bi,|qui- a per|san- ctam Cru- cem|
 c4 !breath!B2 B2- | B2 ^c2 d4- | d4 d4 | (d2 ^c2) d2 ^F2- | F2 ^G2 A4- | A4 A4 | (A2 ^G2) A4 | %21
w: tu- am re-|* de- mi-|* sti|mun- * dum re-|* de- mi-|* sti|mun- * dum|
 z2 e4 B2 | c4 ^G4 | A4 A4 | A8 | A4 A4- | A2 G2 ^F4 | !breath!^G2 A4 G2 | c4 !breath!B2 (B2- | %29
w: re- de-|mi- sti|mun- dum|re-|de- mi-|* sti mun-|dum re- de-|mi- sti mun-|
 B2 A^G A4- | A2 ^G^F) !fermata!G4 |] %31
w: |* * * dum.|
V:3
 A,6 A,2 | ^G,4 G,2 !breath!A,2 | F,8 | E,4 !fermata!z4 | E,6 E,2 | ^D,4 D,2 !breath!E,2 | C,8 | %7
w: A- do-|ra- mus Te|Chri-|ste,|a- do-|ra- mus Te|Chri-|
 B,,4 z4 | z4 z2 E,2 | A,3 G, F,2 F,F, | E,8 | A,,4 z4 | F,4 !breath!F,2 F,2 | F,2 E,2 D,2 G,2 | %14
w: ste,|et|be- ne- di- ci- mus|Ti-|bi,|qui- a per|san- ctam Cru- cem|
 C,4 G,4 | D,4 D,4 | (_B,4 G,2) ^G,2 | A,4 !breath!D,4 | B,,4 A,,4 | (F,4 D,2) ^D,2 | E,4 A,,4 | %21
w: tu- am|re- de-|mi- * sti|mun- dum|re- de-|mi- * sti|mun- dum|
 z8 | z8 | z2 A,4 E,2 | F,4 !breath!^C,4 | D,4 C,4 | B,,8 | !breath!E,4 E,4 | A,4 E,2 !breath!E,2 | %29
w: ||re- de-|mi- sti|mun- dum|mi-|sti re-|de- mi- sti|
 A,,8 | !fermata!E,8 |] %31
w: mun-|dum.|

